src/assets/icons/close.svg

<svg width="24" height="24" viewBox="0 0 24 24" xmlns="http://www.w3.org/2000/svg">
<path fill-rule="evenodd" clip-rule="evenodd" d="M4.38621 18.8252C4.16552 19.049 4.16552 19.3846 4.38621 19.6084C4.6069 19.8322 4.93793 19.8322 5.15862 19.6084L11.8897 12.8951L18.731 19.8322C18.9517 20.0559 19.2828 20.0559 19.5034 19.8322C19.7241 19.6084 19.7241 19.2727 19.5034 19.049L12.6621 12.1119L19.8345 4.95105C20.0552 4.72727 20.0552 4.39161 19.8345 4.16783C19.6138 3.94406 19.2828 3.94406 19.0621 4.16783L11.8897 11.3287L4.93793 4.27972C4.71724 4.05594 4.38621 4.05594 4.16552 4.27972C3.94483 4.5035 3.94483 4.83916 4.16552 5.06294L11.2276 12.1119L4.38621 18.8252Z"/>
</svg>

<svg xmlns="http://www.w3.org/2000/svg" width="24" height="24"><path fill-rule="evenodd" d="M4.39 18.83a.55.55 0 0 0 0 .78c.22.22.55.22.77 0l6.73-6.71 6.84 6.93c.22.23.55.23.77 0a.55.55 0 0 0 0-.78l-6.84-6.94 7.17-7.16a.55.55 0 0 0 0-.78.53.53 0 0 0-.77 0l-7.17 7.16-6.95-7.05a.53.53 0 0 0-.77 0 .55.55 0 0 0 0 .78l7.06 7.05-6.84 6.72Z" clip-rule="evenodd"/></svg>
